packages/foundations/assets/icons/functional/images/navigation/menu_16.svg

<svg width="16" height="16" viewBox="0 0 16 16" fill="none" xmlns="http://www.w3.org/2000/svg">
<g clip-path="url(#clip0_187_89)">
<path fill-rule="evenodd" clip-rule="evenodd" d="M2.40002 8.00001C2.40002 7.55001 2.75002 7.20001 3.20002 7.20001H10.1751C10.625 7.20001 10.9751 7.55001 10.9751 8.00001C10.9751 8.42497 10.625 8.80001 10.1751 8.80001H3.20002C2.75002 8.80001 2.40002 8.42497 2.40002 8.00001ZM2.40002 12C2.40002 11.55 2.75002 11.2 3.20002 11.2H12.8C13.25 11.2 13.6 11.55 13.6 12C13.6 12.45 13.25 12.8 12.8 12.8H3.20002C2.75002 12.8 2.40002 12.45 2.40002 12ZM2.40002 4.00001C2.40002 3.55001 2.75002 3.20001 3.20002 3.20001H12.8C13.25 3.20001 13.6 3.55001 13.6 4.00001C13.6 4.45001 13.25 4.80001 12.8 4.80001H3.20002C2.75002 4.80001 2.40002 4.45001 2.40002 4.00001Z" fill="#1A1C1F"/>
</g>
<defs>
<clipPath id="clip0_187_89">
<rect width="16" height="16" fill="white"/>
</clipPath>
</defs>
</svg>

<svg xmlns="http://www.w3.org/2000/svg" width="16" height="16" fill="none"><g clip-path="url(#a)"><path fill="#1A1C1F" fill-rule="evenodd" d="M2.4 8c0-.45.35-.8.8-.8h6.975c.45 0 .8.35.8.8 0 .425-.35.8-.8.8H3.2c-.45 0-.8-.375-.8-.8m0 4c0-.45.35-.8.8-.8h9.6c.45 0 .8.35.8.8s-.35.8-.8.8H3.2a.79.79 0 0 1-.8-.8m0-8c0-.45.35-.8.8-.8h9.6c.45 0 .8.35.8.8s-.35.8-.8.8H3.2a.79.79 0 0 1-.8-.8" clip-rule="evenodd"/></g><defs><clipPath id="a"><path fill="#fff" d="M0 0h16v16H0z"/></clipPath></defs></svg>
